build/img/icon-beat-dzen.svg

<svg width="216" height="46" viewBox="0 0 216 46" fill="none" xmlns="http://www.w3.org/2000/svg">
<path d="M204.967 0.425926C210.551 0.425926 216 4.81189 216 10.7477V35.2523C216 41.1881 210.551 46 204.967 46H5.72888C0.143979 46 0 46 0 46V5.07743e-06L204.967 0.425926Z" fill="none"/>
<path d="M60.4696 23.4639C60.4696 23.3215 60.3452 23.2039 60.1915 23.1994C54.711 23.0072 51.3767 22.3605 49.0401 20.1944C46.701 18.0261 46.0059 14.9307 45.7986 9.84113C45.7937 9.69869 45.6669 9.58337 45.5132 9.58337H44.8742C44.7205 9.58337 44.5937 9.69869 44.5888 9.84113C44.3815 14.9307 43.6839 18.0261 41.3473 20.1944C39.0107 22.3605 35.6766 23.0072 30.196 23.1994C30.0424 23.2039 29.918 23.3215 29.918 23.4639V24.0586C29.918 24.201 30.0424 24.3186 30.196 24.3231C35.6766 24.5153 39.0107 25.1619 41.3473 27.328C43.6815 29.4918 44.3791 32.5782 44.5888 37.6497C44.5937 37.7921 44.7205 37.9074 44.8742 37.9074H45.5157C45.6693 37.9074 45.7962 37.7921 45.801 37.6497C46.0108 32.5782 46.7084 29.4918 49.0425 27.328C51.3791 25.1619 54.7134 24.5175 60.1939 24.3231C60.3476 24.3186 60.472 24.201 60.472 24.0586V23.4639H60.4696Z" fill="white"/>
<mask id="mask0_39_433" style="mask-type:luminance" maskUnits="userSpaceOnUse" x="47" y="9" width="136" height="32">
<path d="M182.263 9.58337H47.7402V40.8889H182.263V9.58337Z" fill="white"/>
</mask>
<g mask="url(#mask0_39_433)">
<path d="M149.437 34.3653H154.001V25.5725H164.969V34.3653H169.532V13.5669H164.969V21.9652H154.001V13.5669H149.437V34.3653Z" fill="white"/>
<path d="M146.374 24.9819C146.374 17.5357 142.422 12.7778 136.053 12.7778C129.683 12.7778 124.983 17.9609 124.983 23.9637C124.983 29.9665 129.411 35.1496 136.497 35.1496C139.935 35.1496 142.798 34.1007 145.42 32.0997L143.376 29.3121C141.468 30.5925 139.222 31.5422 136.769 31.5422C133.023 31.5422 130.264 29.2791 129.548 25.7355H146.374V24.9819ZM129.582 22.3266C130.23 18.8822 132.886 16.3899 136.087 16.3899C139.288 16.3899 141.434 18.7192 141.944 22.3266H129.58H129.582Z" fill="white"/>
<path d="M113.473 35.152C119.433 35.152 122.974 32.4281 122.974 28.7546C122.974 26.4915 121.645 24.4905 118.376 23.8338L118.172 23.8007V23.6046L118.376 23.5716C121.476 22.981 122.768 20.98 122.768 18.8468C122.768 15.6316 119.737 12.7778 114.118 12.7778C110.338 12.7778 106.659 14.1551 103.559 16.2553L105.398 19.2413C107.544 17.831 110.848 16.3876 113.811 16.3876C116.774 16.3876 118.376 17.831 118.376 19.4067C118.376 20.8832 117.046 22.0313 113.845 22.1943L108.668 22.4234V25.2772L113.845 25.5063C117.184 25.6693 118.376 26.9167 118.376 28.294C118.376 29.8697 116.774 31.5092 113.132 31.5092C109.793 31.5092 106.934 30.1319 104.549 28.5892V32.7565C105.911 33.6093 109.114 35.152 113.473 35.152Z" fill="white"/>
<path d="M99.7789 29.9027V13.5669H83.0562L81.7955 24.5236C81.3197 28.92 79.8873 29.9027 77.437 29.9027H77.2334V38.7593H81.7979V34.3629H97.9761V38.7593H102.541V29.9027H99.7814H99.7789ZM95.2144 30.7556H83.0218V30.5595C84.4861 30.035 85.7468 29.1492 86.1221 25.7048L87.0762 17.1766H95.2168V30.7579L95.2144 30.7556Z" fill="white"/>
</g>
</svg>

<svg xmlns="http://www.w3.org/2000/svg" width="216" height="46" fill="none" viewBox="0 0 216 46"><path d="M204.967.426C210.551.426 216 4.812 216 10.748v24.504C216 41.188 210.551 46 204.967 46H0V0z"/><path fill="#fff" d="M60.47 23.464c0-.142-.125-.26-.279-.265-5.48-.192-8.814-.839-11.15-3.005-2.34-2.168-3.035-5.263-3.242-10.353-.005-.142-.132-.258-.286-.258h-.639c-.154 0-.28.116-.285.258-.207 5.09-.905 8.185-3.242 10.353-2.336 2.166-5.67 2.813-11.151 3.005-.154.005-.278.122-.278.265v.595c0 .142.124.26.278.264 5.48.192 8.815.839 11.151 3.005 2.334 2.164 3.032 5.25 3.242 10.322.005.142.132.257.285.257h.642c.153 0 .28-.115.285-.257.21-5.072.907-8.158 3.241-10.322 2.337-2.166 5.671-2.81 11.152-3.005.154-.004.278-.122.278-.264v-.595z"/><mask id="a" width="136" height="32" x="47" y="9" maskUnits="userSpaceOnUse" style="mask-type:luminance"><path fill="#fff" d="M182.263 9.583H47.74V40.89h134.523z"/></mask><g fill="#fff" mask="url(#a)"><path d="M149.437 34.365h4.564v-8.792h10.968v8.792h4.563V13.567h-4.563v8.398h-10.968v-8.398h-4.564zm-3.063-9.383c0-7.446-3.952-12.204-10.321-12.204-6.37 0-11.07 5.183-11.07 11.186s4.428 11.186 11.514 11.186c3.438 0 6.301-1.05 8.923-3.05l-2.044-2.788c-1.908 1.28-4.154 2.23-6.607 2.23-3.746 0-6.505-2.263-7.221-5.807h16.826zm-16.792-2.655c.648-3.445 3.304-5.937 6.505-5.937s5.347 2.33 5.857 5.937H129.58zm-16.109 12.825c5.96 0 9.501-2.724 9.501-6.397 0-2.264-1.329-4.264-4.598-4.921l-.204-.033v-.196l.204-.033c3.1-.591 4.392-2.592 4.392-4.725 0-3.215-3.031-6.07-8.65-6.07-3.78 0-7.459 1.378-10.559 3.478l1.839 2.986c2.146-1.41 5.45-2.853 8.413-2.853s4.565 1.443 4.565 3.019c0 1.476-1.33 2.624-4.531 2.787l-5.177.23v2.853l5.177.23c3.339.162 4.531 1.41 4.531 2.787 0 1.576-1.602 3.215-5.244 3.215-3.339 0-6.198-1.377-8.583-2.92v4.168c1.362.852 4.565 2.395 8.924 2.395m-13.694-5.249V13.567H83.056l-1.26 10.957c-.476 4.396-1.909 5.379-4.359 5.379h-.204v8.856h4.565v-4.396h16.178v4.396h4.565v-8.856zm-4.565.853H83.022v-.197c1.464-.524 2.725-1.41 3.1-4.854l.954-8.528h8.14v13.58z"/></g></svg>
